icon-themes/sifr_svg/cmd/sc_cyramid.svg

<svg viewBox="0 0 16 16" xmlns="http://www.w3.org/2000/svg"><g fill="#555753"><path d="m7 4-4 10h11v-2l-4-7z" opacity=".35"/><path d="m7 0-7 16h6 6l4-4zm.2324219 4.4570312 2.2858845 9.5429688h-3.5183064-2.9433594zm1.5941313.5429688 4.5328218 6.8125-1.871557 1.871557z"/></g></svg>

<svg xmlns="http://www.w3.org/2000/svg" viewBox="0 0 16 16">
  <path
     style="opacity:0.35;fill:#555753"
     d="M 7,4 3,14 H 14 V 12 L 10,5 Z"
     />
  <path
     style="fill:#555753"
     d="M 7,0 0,16 h 6 6 l 4,-4 z M 7.2324219,4.4570312 9.5183064,14 H 6 3.0566406 Z M 8.8265532,5 l 4.5328218,6.8125 -1.871557,1.871557 z"
     />
</svg>
